X: 062093
T: Fairy Bridges
C: Joe Liddy
Z: BB
S: "The Leitrim Fiddler" (Dublin 1981)
N: Uses dotted rhythm
L: 1/8
M: 4/4
R: hornpipe
Q: 1/4 = 160
K: D
dB | AFEF DEFA | BAFG ABde | fded BAFA | (3Bcd AF E2 dB |
AFEF DEFA | BAFG ABde | fded BAFA | (3Bcd AF D2 :|
fa | (3baf ef defd | edBc dBAF | ABde fded | (3Bcd AF E2 fg|
afef de (3fed | edBA d/e/d/B/ AF | DEFA dfed | (3Bcd AF D2 fa |
(3baf ef defd | edBc dBAF | DEFG ABde | (3fed af e2 fa |
(3baf (3afe (3fed (3edB | (3dBA (3BAF (3AFE (3FEF | DEFA dfed |\ 
(3Bcd AF D2 af |
(3baf ef defd | edBc dBAF | DEFG ABde | (3fed af e2 fa|
(3baf (3afe (3fed (3edB | (3dBA (3BAF (3AFE (3DB,A, | DEFA dfed |\
(3Bcd AF D4 ||
%%%%%%%%%%%%%%%%
